X:1
T:Title
%%score 1 { 2 | 3 }
L:1/8
Q:1/4=90
M:3/4
K:G
V:1 treble nm="Grand Piano, Soprano"
V:2 bass nm="Choir Pad, Tuscany, 87.87.87 D"
V:3 bass 
V:1
 D>[DG] [DB]3 [Ec] | [DB]>[DG] [DB]2 [DG]2 | [DG]>[DF] [CE]2 [Ec]2 | [DB]>[DG] [FA]4 | %4
w: By~Harry~Sanders,~1887 * * *||||
 D>[DG] [DB]3 [Ec] | [DB]>[DG] [DB]2 [DG]2 | [DG]>[DF] [CE]3 [Ec] | [DB]<[DA] [DG]4 | %8
w: ||||
 [EG]>[^DF] E3 [DF] | [EG]>[EA] [^DB]2 [DF]2 | [EG]>[^DF] E3 [DF] | [EG]>[EA] [^DB]4 | %12
w: ||||
 D>[DG] [DB]3 [DG] | [DB]>[=Fd] [Ed]2 [Ec]2 | [EB]>[EA] [DG]3 [DB] | [DB]>[DA] [DG]4 | %16
w: ||||
 [GB]>[Ac] [Bd] [GB]3 | [EA]>[EG] [EG] [CE]3 | D>[DG] [DB]3 [Dd] | [Dc][DB] [DA]4 | %20
w: ||||
 [GB]>[Ac] [Bd] [GB]3 | [EA]>[EG] [EG] [CE]3 | D>[DG] [DB]3 [Dc] | [DB][DA] [DG]4- | [DG]4 z2 |] %25
w: |||||
V:2
 B,>B, G,3 G, | G,>B, G,2 B,2 | B,>G, G,2 G,2 | G,>B, D2 C2 | B,>B, G,3 G, | G,>B, G,2 B,2 | %6
 B,>G, G,3 G, | G,<C B,4 | B,>A, G,3 A, | B,>B, B,2 B,2 | B,>A, G,3 A, | G,>E, F,4 | B,>B, G,3 B, | %13
 G,>G, G,2 G,2 | C>C B,3 G, | G,>C B,4 | G,>G, G, G,3 | G,>G, G, G,3 | B,>B, G,3 B, | A,G, F,4 | %20
 G,>G, G, G,3 | G,>G, G, G,3 | B,>B, G,3 A, | G,C B,4- | B,4 z2 |] %25
V:3
 G,>G, z2 z2 | z z/ G,/ z2 G,2 | G,,>B,, C,2 C,2 | z z/ G,/ D,4 | G,>G, z2 z2 | z z/ G,/ z2 G,2 | %6
 G,,>B,, C,3 C, | D,<D, G,,4 | E,>E, E,3 E, | E,>E, B,,2 B,,2 | E,>E, E,3 E, | E,>C, B,,4 | %12
 G,>G, z2 z G, | z2 C,2 C,2 | C,>C, D,3 D, | D,>D, G,,4 | z6 | C,>C, C, C,3 | G,>G, z2 z G, | %19
 .G,2 D,4 | z6 | C,>C, C, C,3 | G,>G, z2 z D, | D,D, G,,4- | G,,4 z2 |] %25

